X: 1690
T: My Darling Fair Maid   #1
R: hornpipe, reel
%S: s:4 b:16(4+4+4+4)
B: O'Neill's 1850 #1690
O: F.O'Neill
N: The final A in bar 5 sounds odd, and is changed to B as in bar 2. [JC]
M: 2/4
L: 1/16
K: G
B>A \
| G>ED>E G2G>B | d>BG>B d2d>e | d>B (3(BAG) A2A>B | c>AB>G E2B>A |
| G>ED>E G2G>B | d>BG>B d2g>e | d>BG>D G>AB>G | (A<B)G>G G2 :|
|: G>A \
| B>dd>e d2g>e | d>B (3(BAG) A2A>B | c>Bc>d e>fg>e | d>BA>G A2A>B |
| c>Bc>d e>fg>e | d>BA>G A>cB>A | G>ED>E G>AB>G | (A<B)G>G G2 :|
